EmulationStation/.emulationstation/themes/es-theme-carbon-copy/art/gamepad.svg

<?xml version="1.0" encoding="UTF-8" standalone="no"?>
<svg
   xmlns:dc="http://purl.org/dc/elements/1.1/"
   xmlns:cc="http://creativecommons.org/ns#"
   xmlns:rdf="http://www.w3.org/1999/02/22-rdf-syntax-ns#"
   xmlns:svg="http://www.w3.org/2000/svg"
   xmlns="http://www.w3.org/2000/svg"
   xmlns:sodipodi="http://sodipodi.sourceforge.net/DTD/sodipodi-0.dtd"
   xmlns:inkscape="http://www.inkscape.org/namespaces/inkscape"
   width="24"
   height="24"
   viewBox="0 0 24 24"
   version="1.1"
   id="svg4"
   sodipodi:docname="gamepad.svg"
   inkscape:version="0.92.4 (5da689c313, 2019-01-14)">
  <metadata
     id="metadata10">
    <rdf:RDF>
      <cc:Work
         rdf:about="">
        <dc:format>image/svg+xml</dc:format>
        <dc:type
           rdf:resource="http://purl.org/dc/dcmitype/StillImage" />
      </cc:Work>
    </rdf:RDF>
  </metadata>
  <defs
     id="defs8" />
  <sodipodi:namedview
     pagecolor="#ffffff"
     bordercolor="#666666"
     borderopacity="1"
     objecttolerance="10"
     gridtolerance="10"
     guidetolerance="10"
     inkscape:pageopacity="0"
     inkscape:pageshadow="2"
     inkscape:window-width="1920"
     inkscape:window-height="1017"
     id="namedview6"
     showgrid="false"
     inkscape:zoom="9.8333333"
     inkscape:cx="-0.66101695"
     inkscape:cy="12"
     inkscape:window-x="1912"
     inkscape:window-y="-8"
     inkscape:window-maximized="1"
     inkscape:current-layer="svg4" />
  <path
     d="M17.622 3c-1.913 0-2.558 1.382-5.623 1.382-3.009 0-3.746-1.382-5.623-1.382-5.209 0-6.376 10.375-6.376 14.348 0 2.145.817 3.652 2.469 3.652 3.458 0 2.926-5 6.915-5h5.23c3.989 0 3.457 5 6.915 5 1.652 0 2.471-1.506 2.471-3.651 0-3.973-1.169-14.349-6.378-14.349zm-10.622 10c-1.657 0-3-1.343-3-3s1.343-3 3-3 3 1.343 3 3-1.343 3-3 3zm10-6c.552 0 1 .447 1 1 0 .553-.448 1-1 1s-1-.447-1-1c0-.553.448-1 1-1zm-2 4c-.552 0-1-.447-1-1 0-.553.448-1 1-1s1 .447 1 1c0 .553-.448 1-1 1zm2 2c-.552 0-1-.447-1-1 0-.553.448-1 1-1s1 .447 1 1c0 .553-.448 1-1 1zm2-2c-.552 0-1-.447-1-1 0-.553.448-1 1-1s1 .447 1 1c0 .553-.448 1-1 1zm-10.25-1c0 .965-.785 1.75-1.75 1.75s-1.75-.785-1.75-1.75.785-1.75 1.75-1.75 1.75.785 1.75 1.75z"
     id="path2"
     style="fill:#ffffff" />
</svg>

<svg xmlns="http://www.w3.org/2000/svg" width="24" height="24">
    <path d="M17.622 3c-1.913 0-2.558 1.382-5.623 1.382C8.99 4.382 8.253 3 6.376 3 1.167 3 0 13.375 0 17.348 0 19.493.817 21 2.469 21c3.458 0 2.926-5 6.915-5h5.23c3.989 0 3.457 5 6.915 5C23.181 21 24 19.494 24 17.349 24 13.376 22.831 3 17.622 3zM7 13a3 3 0 1 1 0-6 3 3 0 0 1 0 6zm10-6a1 1 0 1 1 0 2 1 1 0 0 1 0-2zm-2 4a1 1 0 1 1 0-2 1 1 0 0 1 0 2zm2 2a1 1 0 1 1 0-2 1 1 0 0 1 0 2zm2-2a1 1 0 1 1 0-2 1 1 0 0 1 0 2zM8.75 10c0 .965-.785 1.75-1.75 1.75S5.25 10.965 5.25 10 6.035 8.25 7 8.25s1.75.785 1.75 1.75z" style="fill:#fff"/>
</svg>
